X:89
T:A Single & Married Life - Bickle
C:Taken down from Henry Bickle by F.W.B. Sept. 1890  
%%VWML:SBG-1-1-419-0
F:http://www.vwml.org/record/SBG/1/1/419
Z:Original Sibleius Transcription by Martin and Shan Graebe
L:1/4
M:4/4
I:linebreak $
K:C
F | F A c c | c3 c/ | d G (3G A B | d c z A | c B B A | A3 F | G3/2 F/ E G |$ G F z2 :| F A c c | 
c3 c | d c d A | B3 c | f3/2 e/ d3/2 c/ |$ c3/2 B/ A3/2 c/ | f3/2 e/ f e | f f f c | c c d c | 
A3 F | D E/ F F/ | G F z  |] X:90
T:Barley straw - Hurrell
C:Taken down from G. H. Hurrell, Chagford by F.W.B. Sept. 30. 1890.
%%VWML:SBG-1-1-456-0
F:http://www.vwml.org/record/SBG/1/1/456
Z:Original Sibleius Transcription by Martin and Shan Graebe
L:1/4
M:4/4
I:linebreak $
K:Eb
G, | C C D D | E E F A | G F E D | C3 G, | C C D D | E E F A | G E D3/2 E/ |$ C3 G | G F/F/ E D | 
C D E F | G G F E | D ^C D G, | C C D D | E E F A |$ G/A/G/F/ E D | C G, C G, | C C D D | 
E E F A | G/A/G/F/ E D | C3  |] 
T:Barley straw - Old king Cole
T:“Old King Cole” written by Hunneman was set by A.S. Rich, & pub. by Prowse of Hanway St. abt. 1830.  
L:1/8
M:2/4
I:linebreak $
K:G
EEFE/F/ | GGFG/A/ | BEF^D | E3 B, | EEFE/F/ | GGFG/A/ | GGFG/A/ | BEFB, |$ E2 z G/A/ | BBAA | 
GGFG/F/ | EFGA | B3 B, | EEFF | GGFc | BAGF | E2  |] 
T:Barley straw - Wiltshire harvest home
T:“Wiltshire Harvest Home” Akerman’s “Wiltshire Tales” 1853, p. 122.
L:1/8
M:6/8
I:linebreak $
K:Ab
C | F2 F E2 C | A3 G2 c | A2 F G2 =E | (F3 F2) C | F2 F E2 C |$ A2 A G2 B | A2 F G2 =E | 
(F3 F2) A | c2 c c2 A | B3 G2 G | A A F c2 A |$ (G3 G2) C | F2 F E2 C | A3 G2 c | A2 F G2 =E | 
(F2 F2) ||"^chorus" A | c3 c3 | c3 B3 |$ A G F cB A | G3 G2 C | F2 F =E2 C | A2 A G2 B | 
A2 F G2 =E | F4 z  |] 



